X:502
T:Lord Seaforth
R:Strathspey
B:The Athole Collection
M:C
L:1/8
K:G
B|G<D D>E G>AB>G|c>AB>G E2 E>A|G<D D>E G>A B<e|d>B A<B G2G:|
g|e/f/g d>g B>gd>B|c>AB>G E2 E>g|e/f/g d>g B>gd>B|c>Ad>B G2 G>g|
e<gd<b c<aB<g|c>AB>G E2 E>A|G<D D>E G>A B<e|d<G A<B G2G:|

